website/public/Images/logos/prometheus_white.svg

<svg width="29" height="28" viewBox="0 0 29 28" fill="none" xmlns="http://www.w3.org/2000/svg">
<g clip-path="url(#clip0)">
<path d="M14.2573 0.164062C6.65969 0.164062 0.5 6.39505 0.5 14.0818C0.5 21.7683 6.65969 27.9997 14.2573 27.9997C21.855 27.9997 28.0145 21.7683 28.0145 14.0818C28.0145 6.39505 21.8548 0.164062 14.2573 0.164062ZM14.2573 26.2127C12.0957 26.2127 10.3431 24.7517 10.3431 22.9502H18.1716C18.1716 24.7515 16.419 26.2127 14.2573 26.2127ZM20.7225 21.8697H7.79151V19.4976H20.7227V21.8697H20.7225ZM20.6761 18.2766H7.82841C7.78569 18.2268 7.74199 18.1776 7.70071 18.127C6.3771 16.5011 6.06538 15.6522 5.76264 14.7872C5.75754 14.7587 7.36763 15.12 8.5094 15.3799C8.5094 15.3799 9.09692 15.5174 9.95585 15.6758C9.13115 14.6978 8.64147 13.4545 8.64147 12.1837C8.64147 9.39375 10.7565 6.95578 9.99348 4.98522C10.7361 5.04638 11.5305 6.57091 11.5841 8.95459C12.3737 7.8508 12.7041 5.83505 12.7041 4.59912C12.7041 3.31947 13.5375 1.83301 14.3712 1.78217C13.6281 3.02129 14.5637 4.08357 15.3955 6.71876C15.7074 7.70859 15.6676 9.37434 15.9085 10.4307C15.9883 8.23666 16.3612 5.03533 17.737 3.93006C17.1301 5.32196 17.8269 7.06361 18.3034 7.90091C19.0723 9.25178 19.5384 10.2753 19.5384 12.2109C19.5384 13.5088 19.0648 14.7307 18.2658 15.6859C19.1743 15.5135 19.8016 15.358 19.8016 15.358L22.7518 14.7756C22.7521 14.7754 22.3233 16.559 20.6761 18.2766Z" fill="white"/>
</g>
<defs>
<clipPath id="clip0">
<rect width="28" height="28" fill="white" transform="translate(0.5)"/>
</clipPath>
</defs>
</svg>

<svg xmlns="http://www.w3.org/2000/svg" width="29" height="28" fill="none" xmlns:v="https://vecta.io/nano"><g clip-path="url(#A)"><path d="M14.257.164C6.66.164.5 6.395.5 14.082S6.66 28 14.257 28s13.757-6.231 13.757-13.918S21.855.164 14.257.164zm0 26.049c-2.162 0-3.914-1.461-3.914-3.263h7.829c0 1.801-1.753 3.263-3.914 3.263zm6.465-4.343H7.792v-2.372h12.931v2.372h0zm-.046-3.593H7.828l-.128-.15c-1.324-1.626-1.635-2.475-1.938-3.34-.005-.029 1.605.333 2.747.593 0 0 .588.138 1.446.296-.825-.978-1.314-2.221-1.314-3.492 0-2.79 2.115-5.228 1.352-7.198.743.061 1.537 1.586 1.591 3.969.79-1.104 1.12-3.12 1.12-4.355 0-1.28.833-2.766 1.667-2.817-.743 1.239.193 2.301 1.024 4.937.312.99.272 2.656.513 3.712.08-2.194.453-5.395 1.828-6.501-.607 1.392.09 3.134.566 3.971.769 1.351 1.235 2.374 1.235 4.31a5.42 5.42 0 0 1-1.273 3.475c.909-.172 1.536-.328 1.536-.328l2.95-.582c0 0-.428 1.783-2.076 3.501z" fill="#fff"/></g><defs><clipPath id="A"><path fill="#fff" transform="translate(.5)" d="M0 0h28v28H0z"/></clipPath></defs></svg>
